X:1
T:Amore Celato-Si ben mustru
T:Giovanni Stefani
T:Aria Siciliana
T:Source : Affetti amorosi-Canzonette ad una voce sola---Venetia---A.Vincenti---1621. Editor : André Vierendeels (02/11/15).
T:Notes : Original clefs C1, F4 Alfabetto et intavolatura per la chitarra Spagnola Terza impressione (first print 1618)
T:Si ben mustru di fora-Amore celato
C:Giovanni Stefani
%%score 1 { ( 2 3 ) | 4 }
L:1/8
Q:1/4=120
M:4/4
K:F
V:1 treble nm="Soprano" snm="S"
V:2 treble nm="BC" snm="BC"
V:3 treble 
V:4 bass 
V:1
 z4 B4- | B2 B2 BB c2 | A6 ^F2 | G4- GA ^F2 | G8- | G8 | z4 A4- | A2 AA A2 A2 | A2 A2 B3 c | %9
w: Si|_ ben mu- stru di|fo- ra|tut- * tu Ye-|lu,||ar-|* di lu pet- tu|miu di fo- cu|
w: A-|* mu, e l'a- mu-|ri miu'a|nul- * lu- ri-|ve-|lu,|ben|_ chi s'a- gra- va|ta- cen- du lu|
 A4 A4 | z4 B4 | B2 B2 c3 B | B2 B2 d2 d2 | c4 c4 | B2 B2 _A2 AB | G6 G2 | G4- GA ^F2 | G8- | G8 | %19
w: ta- li,|chi|com' un mon- gi-|bel- lu den- tru|ce- lu,|l'au- den- tis- si- ma|xhia- m'a|nul _ la'e- qua-|li,||
w: ma- li,|poi|chi s'iu par- lu|m'è con- tra lu|ce- lu,|lu mun- du- ye la|mia fort'|em- * pia'e fa-|ta-|li,|
 z4 A4 | A2 A2 B3 c | d2 ^F4 F2 | G2 G3 A ^F2 | G8- | G8 |] %25
w: xhia-|m'a nul- la- e-|qua- li, xhia-|m'a nul- la'e- qua-|li.|_|
w: mia|fort' em- pia'e fa-|ta- li, fort'|em- pia'e fa- ta-|li.|_|
V:2
 G8 | B4 G4 | A4 ^F4 | G6 A2 | G8 | G8 | c8 | A8 | c4 B2 c2 | d4 A4 | d8 | B4 A4 | F8 | A8 | %14
 B4 c4 | d8 | c6 A2 | =B8- | B8 | A8 | A4 G4 | A6 A2 | G4 A4 | =B8- | B8 |] %25
V:3
 D8 | D4 _E4 | D4 D4 | E6 D2 | D8- | D8 | A8 | F8 | F4 G4 | ^F4 D2 E2 | F8 | D4 F4 | D8 | F8 | %14
 D4 F4 | B8 | G6 ^F2 | D8- | D8 | F8- | F4 G4 | D6 ^F2 | E4 D4 | D8- | D8 |] %25
V:4
 G,8 | G,4 _E,2 C,2 | D,8 | C,6 D,2 | G,,8- | G,,8 | F,,8 | F,8 | F,4 _E,3 C, | D,4 D,2 C,2 | %10
 B,,8 | B,,4 F,4 | B,,4 B,,4 | F,8 | F,8 | G,8 | C,4 C,2 D,2 | G,,8- | G,,8 | F,,8 | F,4 _E,2 C,2 | %21
 D,8 | C,4 D,4 | G,,8- | G,,8 |] %25

